X: 20620
T: John Rankin's
R: reel
M: 4/4
K: Dmajor
B|:A~D3 A2AB|A~D3 BABd|A~D3 A2FA|1 BA B/c/d edef:|2 BA B/c/d ecde||
f~A3 efed|e~B3 e2ed|e~B3 BdAB|d~A3 dAde|
f~A3 efed|e~B3 e2ed|efed ~B2ef|edBA B/c/d dB||

